X: 29762
T: Ó Ghlúin Go Glúin
R: slide
M: 12/8
K: Dmajor
"D" F2 A ABA"G" G2 A B2 d|"A" cBA e2f g2 e c2 A|
"D"F2 A ABA"G" G2 A B2 d|"A" c2 "A7"A f2 e"D" d3 d2 A|
"D" F2 A ABA"G" G2 A B2 d|"A" cBA e2f g2 e c2 A|
"D"F2 A ABA"G" G2 A B2 d|"A" c2 "A7"A f2 e"D" d3 d2 f||
"Em" g3 fgf e2 d B2 c|"D" d2 A ABA d2 A f2 A|
"Em" g3 fgf e2 d B2 c|"D" d2 f a2 f"A" e3 e2 f|
"Em" g3 fgf e2 d B2 c|"D" d2 A ABA d2 A f2 A|
"D" F2 A ABA "G" G2 A B2 d|"A" c2 A f2 e"D" d3- d3||

